X:1
T:Christ Is Coming
T:Christ Is Coming
T:Winfield Macomber
T:Winfield Macomber, 1890
T:Public Domain Courtesy of the Cyber Hymnal™
T:Public Domain Courtesy of the Cyber Hymnal™
C:Winfield Macomber
Z:Public Domain
Z:Courtesy of the Cyber Hymnal™
%%score ( 1 2 ) ( 3 4 )
L:1/8
Q:1/4=90
M:3/4
K:F
V:1 treble 
V:2 treble 
V:3 bass 
V:4 bass 
V:1
 [FA]>[FA] | [FA]3 [FA]{[FA]} (3(F{[fa]}G[FA]) x | [FB]2 [FA]2 [FA]>[FA] | [Ec]3 [EG] F>[EG] | %4
w: 1.~In the|glow of ear- * *|ly morn- ing, In|the sol- emn hush|
w: 2.~Oft me-|thinks I hear * *|His foot- steps, Steal-|ing down the paths|
w: 3.~Long we’ve|wait- ed, blest * *|Re- deem- er, Wait-|ed for the first|
 [FA]4 [FA]>[FA] | [FA]3 [FA] (3(F{[bd']}G[FA]) | [FB]2 [FA]2 [FA]>[Fc] | [F=B]3 [FA] [FB]>[FG] | %8
w: of night; Down|from Heav- en’s * *|o- pen por- tals,|Steals a mess- en-|
w: of time; And|the fu- ture * *|dark with sha- dows,|Bright- ens with this|
w: bright ray Of|the morn when * *|sin and sor- row|At Thy pre- sence|
 [Ec]4 [Ed]>[Ec] | [GB]3 [GB] [FA]>[EG] | [FA]2 [Fc]2 [Fd]>[Fc] | [GB]3 [GB] [FA]>[EG] | %12
w: ger of light,|Whis- pering sweet- ly|to my spir- it,|While the hosts of|
w: hope sub- lime.|Sound the soul in-|spir- ing an- them;|An- gel hosts, your|
w: flee a- way;|But our vi- gil’s|near- ly o- ver;|Hope of Heav’n, oh,|
 [FA]4 [FA]>[GB] | [Ac]3 [FA] [EB][Fc] | .[Fd].[Fd] z2 [FB]>[FG] | .[Ec].[Ec] z2 [EG]>[Ec] | %16
w: Heav- en sing:|This the won- drous|thrill- ing sto- ry:|Christ is com- ing—|
w: harps at- tune;|Earth’s long night is|al- most o- ver,|Christ is com- ing—|
w: price- less boon!|In the east the|glow ap- pear- ing,|Christ is com- ing—|
 [Fc]4 [FA]>[GB] | [Ac]3 [FA] [EB][Fc] | .[Fd].[Fd] z2 [FB]>[FG] | %19
w: Christ my king.|This the won- drous|thrill- ing sto- ry—|
w: com- ing soon.|Earth’s long night is|al- most o- ver,|
w: com- ing soon.|In the east the|glow ap- pear- ing,|
 .[Ec].[Ec] !fermata![CE]3 !fermata![CE] | [CF]4 |] %21
w: Christ is com- ing—|Christ|
w: Christ is com- ing—|com-|
w: Christ is com- ing—|com-|
V:2
 x2 | x5 F2 | x6 | x4 F3/2 x/ | x6 | x4 F2 | x6 | x6 | x6 | x6 | x6 | x6 | x6 | x6 | x6 | x6 | x6 | %17
 x6 | x6 | x6 | x4 |] %21
V:3
 [F,C]>[F,C] | [F,C]3 [F,C] (3(A,{[GB]}B,[F,C]) x | [F,D]2 [F,C]2 [F,C]>[F,C] | %3
 [C,C]3 [C,B,] [C,A,]>[C,C] | [F,C]4 [F,C]>[F,C] | [F,C]3 [F,C] (3(A,{[GB]}B,[F,C]) | %6
 [F,D]2 [F,C]2 [F,C]>[F,A,] | G,3 [G,C] [G,D]>[G,=B,] | [C,C]4 [C,G,]>[C,G,] | %9
 [C,C]3 [C,C] [C,C]>[C,C] | [F,C]2 [F,A,]2 [F,B,]>[F,A,] | [C,C]3 [C,C] [C,C]>[C,C] | %12
 [F,C]4 [F,C]>[F,C] | [F,F]3 [F,C] [G,C][A,C] | B,_B, z2 .[B,,D]>.[=B,,D] | %15
 .[C,C].[C,G,] z2 [C,C]>[C,B,] | [F,A,]4 [F,C]>[F,C] | [F,F]3 [F,C] [G,C][A,C] | %18
 B,_B, z2 [B,,D]>[=B,,D] | .[C,C].[C,G,] !fermata![C,B,]3 !fermata![C,B,] | [F,A,]4 |] %21
V:4
 x2 | x4 F,2 x | x6 | x6 | x6 | x4 F,2 | x6 | G,3 x3 | x6 | x6 | x6 | x6 | x6 | x6 | .=B,.=B, x4 | %15
 x6 | x6 | x6 | .=B,.=B, x4 | x6 | x4 |] %21

